!!!COM:	la Rue, Pierre de
!!!CDT:	~1452///-1518/11/20
!!!OPR:	Missa De Sancto Job
!!!ONM:	2
!!!OTL:	Gloria
!!!AGN:	Mass; Gloria
!!!SCT:	Rue1013b
!!!SCA:	Rue1013b
!!!voices-OPR:	4
!!!voices:	4
**kern	**kern	**kern	**kern
*Ivox	*Ivox	*Ivox	*Ivox
*I"Bassus	*I"Tenor	*I"Contratenor	*I"Discantus
*I'B	*I'T	*I'Ct	*I'D
*staff4	*staff3	*staff2	*staff1
*>[A,B]	*>[A,B]	*>[A,B]	*>[A,B]
*>A	*>A	*>A	*>A
*clefF4	*clefGv2	*clefGv2	*clefG2
*k[b-]	*k[b-]	*k[b-]	*k[b-]
*M3/1	*M3/1	*M3/1	*M3/1
*met(O)	*met(O)	*met(O)	*met(O)
!!section: Et in terra pax
!!!OMD: Et in terra pax
=1-	=1-	=1-	=1-
0.r	0.r	0G	0g
.	.	1G	2.b-\
.	.	.	4a/
=2	=2	=2	=2
0.r	0.r	0B-	2g/
.	.	.	1f
.	.	.	4e/
.	.	.	4d/
.	.	1c	1e
=3	=3	=3	=3
0.r	0.r	0.d	2d/
.	.	.	2a/
.	.	.	2a/
.	.	.	2.b-\
.	.	.	4a/
.	.	.	4a/
.	.	.	4g/
=4	=4	=4	=4
0.r	0.r	2r	1f
.	.	2d\	.
.	.	2d\	2r
.	.	2.e-i\	1cc
.	.	4d\	.
.	.	4d\	2b-\
.	.	4c\	.
=5	=5	=5	=5
0.r	0.r	2B-\	2g/
.	.	1f	1a
.	.	2e\	4g/
.	.	.	4f/
.	.	2c\	4e/
.	.	.	4d/
.	.	[2d\	2f/
=6	=6	=6	=6
0.r	0.r	2d\]	2e/
.	.	4c\	1a
.	.	4B-\	.
.	.	4A/	.
.	.	4G/	.
.	.	2B-\	1g
.	.	1A	.
.	.	.	2f#i/
=7	=7	=7	=7
1r	1r	0G	0g
1G	1r	.	.
2G\	1G	1r	1r
[2B-\	.	.	.
=8	=8	=8	=8
4B-\]	0B-	0.r	0.r
4A\	.	.	.
4G\	.	.	.
4F\	.	.	.
2E-\	.	.	.
2D\	.	.	.
1C	1c	.	.
=9	=9	=9	=9
2BB-/	1.d	0.r	0.r
2F\	.	.	.
2G\	.	.	.
1B-	2B-\	.	.
.	1c	.	.
2A\	.	.	.
=10	=10	=10	=10
1B-	2r	0.r	0.r
.	2B-\	.	.
1BB-	2B-\	.	.
.	2B-\	.	.
2r	2c\	.	.
2BB-/	[2d\	.	.
=11	=11	=11	=11
2BB-/	2d\]	0.r	0.r
2BB-/	4c\	.	.
.	4B-\	.	.
2C/	4A/	.	.
.	4G/	.	.
2C/	2c\	.	.
[1D	2B-\	.	.
.	[2A/	.	.
=12	=12	=12	=12
1D]	2A/]	0.r	0.r
.	2d\	.	.
2F\	2.d\	.	.
1F	.	.	.
.	4c\	.	.
.	4c\	.	.
.	4B-\	.	.
4D\	[2B-\	.	.
4E-i\	.	.	.
=13	=13	=13	=13
1C	2B-\]	0.r	0.r
.	2A/	.	.
0BB-	2B-\	.	.
.	1d	.	.
.	2d\	.	.
=14	=14	=14	=14
2r	2c\	0.r	0.r
1D	2A/	.	.
.	2B-\	.	.
2D\	4A/	.	.
.	4B-\	.	.
1C	4c\	.	.
.	4B-\	.	.
.	4A/	.	.
.	4G/	.	.
=15	=15	=15	=15
2AA/	2F/	0.r	0.r
1BB-	2F/	.	.
.	2G/	.	.
4AA/	2.A/	.	.
4BB-/	.	.	.
4C/	.	.	.
4BB-/	4B-\	.	.
4AA/	4c\	.	.
4GG/	4d\	.	.
=16	=16	=16	=16
2AA/	4c\	0.r	0.r
.	4A/	.	.
2GG/	2.B-\	.	.
2BB-/	.	.	.
.	4A/	.	.
2C/	1G	.	.
1AA	.	.	.
.	2F#i/	.	.
=17	=17	=17	=17
0.GG	[0.G	1r	1r
.	.	1r	1r
.	.	1d	1g
=18	=18	=18	=18
1r	0.G]	2d\	2g/
.	.	1e-i	1g
1r	.	.	.
.	.	4d\	4f/
.	.	4c\	4e/
1G	.	[1B-	1d
=19	=19	=19	=19
2G\	0.r	2B-\]	2e/
2G\	.	4A/	2d/
.	.	4G/	.
2G\	.	2B-\	1g
4F\	.	2c\	.
4E\	.	.	.
2D\	.	1d	2f/
2D\	.	.	2f/
=20	=20	=20	=20
1E-	0G	1B-	2b-\
.	.	.	2b-\
0C	.	0e-i	0cc
.	1G	.	.
=21	=21	=21	=21
0.BB-	0B-	1d	1dd
.	.	2r	2r
.	.	2d\	2dd\
.	1B-	2d\	2dd\
.	.	2d\	2dd\
=22	=22	=22	=22
2r	[0.c	2e\	2cc\
2F\	.	1f	1a
2F\	.	.	.
2F\	.	4e\	4g/
.	.	4d\	4f/
2C/	.	2e\	2g/
2F\	.	2f\	2a/
=23	=23	=23	=23
2.A\	0c]	1F	2.cc\
4G\	.	.	4b-\
2F\	.	1r	2a/
4E\	.	.	4g/
4D\	.	.	4f/
1E	1c	1r	1g
=24	=24	=24	=24
0D	[0.d	2r	0f
.	.	2A/	.
.	.	2A/	.
.	.	2A/	.
1r	.	2B-\	1r
.	.	4A/	.
.	.	4G/	.
=25	=25	=25	=25
1D	0.d]	2F/	2r
.	.	1A	2a/
2D\	.	.	2a/
2D\	.	2F/	2a/
2GG/	.	2G/	2b-\
[2D\	.	2A/	4a/
.	.	.	4g/
=26	=26	=26	=26
4D\]	0.r	2B-\	2f/
4E\	.	.	.
1F	.	4A/	1a
.	.	4G/	.
.	.	2F/	.
4E\	.	2F/	2f/
4D\	.	.	.
1C	.	1c	2g/
.	.	.	2a/
=27	=27	=27	=27
1BB-	0.r	2.d\	2b-\
.	.	.	4a/
.	.	8c\L	4g/
.	.	8B-\J	.
1r	.	2A/	2f/
.	.	1B-	2d/
1r	.	.	1c
.	.	2A/	.
=28	=28	=28	=28
1BB-	0d	1B-	0B-
4BB-/	.	2r	.
4C/	.	.	.
4D\	.	2B-\	.
4E\	.	.	.
2F\	2c\	2A/	1r
2BB-/	[2d\	[2B-\	.
=29	=29	=29	=29
1BB-	2d\]	2B-\]	0.r
.	4c\	4A/	.
.	4B-\	4G/	.
2r	2A/	1F	.
2D\	2A/	.	.
2.D\	1d	1r	.
4E\	.	.	.
=30	=30	=30	=30
4F\	2B-\	0.r	0.r
4G\	.	.	.
1A	2.c\	.	.
.	4B-\	.	.
1G	4A/	.	.
.	4G/	.	.
.	1A	.	.
2F#i\	.	.	.
=31	=31	=31	=31
1G	0G	0d	1.b-
1GG	.	.	.
.	.	.	4a/
.	.	.	4g/
1r	1r	1d	2a/
.	.	.	2b-\
=32	=32	=32	=32
0.r	0.r	1.e	2g/
.	.	.	2cc\
.	.	.	2cc\
.	.	4d\	4b-\
.	.	4c\	4a/
.	.	2d\	2b-\
.	.	2e\	2cc\
=33	=33	=33	=33
0.r	0.r	2c\	1.a
.	.	1f	.
.	.	4e\	4g/
.	.	4d\	4f/
.	.	2e\	2g/
.	.	2f\	2a/
=34	=34	=34	=34
0.r	0.r	1.d	2.f/
.	.	.	4e/
.	.	.	4d/
.	.	.	4e/
.	.	4c\	4f/
.	.	4B-\	4g/
.	.	2c\	2e/
.	.	2d\	2d/
=35	=35	=35	=35
1r	0.r	2.B-\	2r
.	.	.	1b-
.	.	4A/	.
2r	.	4G/	.
.	.	4A/	.
1G	.	4B-\	2g/
.	.	4c\	.
.	.	1A	2a/
2F\	.	.	2cc\
=36	=36	=36	=36
2G\	1r	2r	2b-\
2.D\	.	2A/	1a
.	2r	4F/	.
4E\	.	4G/	.
4F\	1d	4A/	4g/
4G\	.	4B-\	4f/
1E	.	1G	1g
.	2c\	.	.
=37	=37	=37	=37
1D	2d\	2.A/	1f
.	2.A/	.	.
.	.	4F/	.
1r	.	1F	1r
.	4B-\	.	.
.	4c\	.	.
.	4A/	.	.
1r	1B-	1r	[1f
=38	=38	=38	=38
1.D	0A	2r	2f/]
.	.	1d	2f/
.	.	.	1f
2D\	.	2d\	.
1C	1r	1G	1e
=39	=39	=39	=39
0BB-	1.B-	2G/	1d
.	.	1F	.
.	.	.	2r
.	2B-\	2F/	1d
1BB-	1B-	1G	.
.	.	.	2d/
=40	=40	=40	=40
1.C	1G	0E	1.e
.	2G/	.	.
2AA/	1A	.	2c/
1AA	.	2r	1c
.	2F/	[2A/	.
=41	=41	=41	=41
0D	1F	2A/]	2r
.	.	4G/	1f
.	.	4F/	.
.	2r	2A/	.
.	1F	2B-\	4e/
.	.	.	4d/
[1D	.	2A/	4f/
.	.	.	4g/
.	4E/	[2f\	4a/
.	4D/	.	4b-\
=42	=42	=42	=42
1D]	4F/	2f\]	2a/
.	4G/	.	.
.	4A/	2d\	1f
.	4B-\	.	.
2C/	2A/	4e-i\	.
.	.	4d\	.
2BB-/	1G	4c\	2g/
.	.	4B-\	.
1AA	.	2.c\	2a/
.	2F/	.	[2cc\
.	.	4d\	.
=43	=43	=43	=43
0GG	2G/	2e-i\	2cc\]
.	2D/	1d	2.b-\
.	2G/	.	.
.	.	.	4a/
.	2B-\	4c\	1g
.	.	4B-\	.
2r	1A	2c\	.
2D\	.	2F/	2f/
=44	=44	=44	=44
2E-\	0G	2r	2g/
2BB-/	.	2B-\	2d/
0E-i	.	2c\	0g
.	.	2.G/	.
.	2r	.	.
.	.	4A/	.
.	2G/	4B-\	.
.	.	4c\	.
=45	=45	=45	=45
1D	2A/	0d	2r
.	2F/	.	2f/
1GG	0B-	.	2g/
.	.	.	2.d/
1r	.	1d	.
.	.	.	4e/
.	.	.	4f/
.	.	.	4g/
=46	=46	=46	=46
2r	1A	2r	1a
2F\	.	2c\	.
2G\	1r	2B-\	[0d
2.GG/	.	2G/	.
.	1r	1B-	.
4AA/	.	.	.
4BB-/	.	.	.
4C/	.	.	.
=47	=47	=47	=47
1D	2r	2A/	0.d]
.	2F/	1B-	.
1GG	2G/	.	.
.	2.D/	4A/	.
.	.	4G/	.
[1Dl	.	[1Fl	.
.	4E/	.	.
.	4F/	.	.
.	4G/	.	.
=48	=48	=48	=48
0.D]	0.Al	0.F]	0.dl
!!LO:LB:i:g=z
=49||	=49||	=49||	=49||
*>B	*>B	*>B	*>B
*clefF4	*clefGv2	*clefGv2	*clefG2
*k[b-]	*k[b-]	*k[b-]	*k[b-]
*M2/1	*M2/1	*M2/1	*M2/1
*met(C|)	*met(C|)	*met(C|)	*met(C|)
!!section: Qui tollis
!!!OMD: Qui tollis
1r	0d	0r	0r
[1G	.	.	.
=50	=50	=50	=50
1G]	1B-	0r	0r
1E	1c	.	.
=51	=51	=51	=51
1F	[0d	0r	0r
1G	.	.	.
=52	=52	=52	=52
2F\	1d]	0r	0r
1G	.	.	.
.	1d	.	.
4F\	.	.	.
4E\	.	.	.
=53	=53	=53	=53
1D	1d	0r	0r
2E\	2c\	.	.
2F\	[2d\	.	.
=54	=54	=54	=54
2D\	2d\]	0r	0r
1G	4c\	.	.
.	4B-\	.	.
.	1A	.	.
2F\	.	.	.
=55	=55	=55	=55
2G\	1G	0r	0r
2C/	.	.	.
2D\	2r	.	.
2E\	2G/	.	.
=56	=56	=56	=56
2.F\	2A/	0r	0r
.	2B-\	.	.
4D\	.	.	.
2E\	2.c\	.	.
2C/	.	.	.
.	4A/	.	.
=57	=57	=57	=57
2D\	2B-\	0r	0r
2E\	2G/	.	.
1F	2A/	.	.
.	2B-\	.	.
=58	=58	=58	=58
2r	2c\	0r	0r
2BB-/	1d	.	.
2C/	.	.	.
2D\	4c\	.	.
.	4B-\	.	.
=59	=59	=59	=59
4E-i\	2c\	0r	0r
4D\	.	.	.
4C/	1B-	.	.
4BB-/	.	.	.
1C	.	.	.
.	2A/	.	.
=60	=60	=60	=60
[0BB-	[0B-	0d	0f
=61	=61	=61	=61
0BB-_	0B-_	1d	1f
.	.	1d	1f
=62	=62	=62	=62
0BB-]	0B-]	1f	2d/
.	.	.	2.f/
.	.	2.d\	.
.	.	.	4e/
.	.	.	4d/
.	.	4e\	4c/
=63	=63	=63	=63
0r	0r	2f\	1B-
.	.	2.f\	.
.	.	.	2r
.	.	4e\	.
.	.	4d\	2a/
.	.	4c\	.
=64	=64	=64	=64
0r	0r	1B-	2.b-\
.	.	.	4a/
.	.	2r	4b-\
.	.	.	4a/
.	.	2d\	4g/
.	.	.	4f/
=65	=65	=65	=65
0r	0r	2.e-i\	2g/
.	.	.	1cc
.	.	4d\	.
.	.	4e-i\	.
.	.	4d\	.
.	.	4c\	[2b-\
.	.	4B-\	.
=66	=66	=66	=66
0r	0r	1c	2b-\]
.	.	.	2a/
.	.	1B-	1b-
=67	=67	=67	=67
1.F	1.c	1.f	1.a
2F\	2c\	2f\	2a/
=68	=68	=68	=68
1F	1c	1f	1a
1F	1c	1f	1a
=69	=69	=69	=69
1D	0d	1f	1a
1D	.	[1f	1a
=70	=70	=70	=70
1BB-	1d	2f\]	1b-
.	.	4e\	.
.	.	4d\	.
[1C	[1c	[1e	2a/
.	.	.	[2g/
=71	=71	=71	=71
1C]	2c\]	1e]	4g/]
.	.	.	4f/
.	2B-\	.	4e/
.	.	.	4d/
1C	2G/	1c	1e
.	2A/	.	.
=72	=72	=72	=72
2.BB-/	0B-	2.f\	1d
4C/	.	4e\	.
2D\	.	2d\	1r
2E-i\	.	4c\	.
.	.	4B-\	.
=73	=73	=73	=73
1C	1r	4A/	2r
.	.	4G/	.
.	.	2A/	2c/
1BB-	2.B-\	1B-	2.d/
.	4c\	.	4e-i/
=74	=74	=74	=74
1r	2d\	0r	2f/
.	2e-i\	.	2g/
2r	1c	.	1e-i
2AA/	.	.	.
=75	=75	=75	=75
2.BB-/	0B-	2F/	1d
.	.	2G/	.
4C/	.	.	.
2D\	.	2F/	2r
2E-i\	.	[2B-\	2B-/
=76	=76	=76	=76
1C	1r	2B-\]	2c/
.	.	2A/	2c/
2.BB-/	[1B-	2G/	2.d/
.	.	[2F/	.
4C/	.	.	4e-i/
=77	=77	=77	=77
2D\	2B-\]	2F/]	2f/
2E-i\	4A/	4E-i/	2g/
.	4G/	4D/	.
1C	1A	1E-i	1e-i
=78	=78	=78	=78
0BB-	1B-	0F	1d
.	1B-	.	1d
=79	=79	=79	=79
1r	0B-	1r	0f
1BB-	.	1d	.
=80	=80	=80	=80
0D	0A	0d	0f
=81	=81	=81	=81
0D	1r	0d	1r
.	1A	.	1f
=82	=82	=82	=82
1r	1A	1r	1f
1D	1A	1d	1f
=83	=83	=83	=83
1D	1A	1d	0f
1D	2A/	1d	.
.	[2B-\	.	.
=84	=84	=84	=84
0D	2B-\]	0d	0f
.	4A/	.	.
.	4G/	.	.
.	1A	.	.
=85	=85	=85	=85
1.E-i	[0G	1.B-	0g
2C/	.	2c\	.
=86	=86	=86	=86
0C	0G_	1c	1g
.	.	2r	2e/
.	.	[2c\	[2e/
=87	=87	=87	=87
1C	0G]	2c\]	2e/]
.	.	4B-\	4d/
.	.	4A/	4c/
2GG/	.	2B-\	2d/
2C/	.	2c\	2e/
=88	=88	=88	=88
2D\	0r	2A/	2f/
2E\	.	2G/	1e
2F\	.	2A/	.
2G\	.	2B-\	[2d/
=89	=89	=89	=89
1E	0r	1G	2d/]
.	.	.	2c/
1D	.	2A/	2d/
.	.	2d\	2f/
=90	=90	=90	=90
0r	0r	2c\	2e/
.	.	1B-	1d
.	.	4A/	4c/
.	.	4G/	4B-/
=91	=91	=91	=91
0r	1r	0F	0A
.	[1c	.	.
=92	=92	=92	=92
1.F	2c\]	0r	0r
.	2c\	.	.
.	1A	.	.
2F\	.	.	.
=93	=93	=93	=93
0D	1A	0r	0r
.	2B-\	.	.
.	[2A/	.	.
=94	=94	=94	=94
1D	2A/]	0r	0r
.	4G/	.	.
.	4F/	.	.
2E-i\	2G/	.	.
[2D\	[2F/	.	.
=95	=95	=95	=95
2D\]	4F/]	0r	0r
.	4G/	.	.
4C/	4A/	.	.
4BB-/	4B-\	.	.
2C/	2A/	.	.
[2BB-/	[2B-\	.	.
=96	=96	=96	=96
4BB-/]	2B-\]	0r	0r
4C/	.	.	.
4D\	4A/	.	.
4E-i\	4G/	.	.
2D\	4F/	.	.
.	4G/	.	.
[2C/	4A/	.	.
.	4B-\	.	.
=97	=97	=97	=97
4C/]	2A/	0r	1r
4BB-/	.	.	.
4AA/	1G	.	.
4GG/	.	.	.
1AA	.	.	1a
.	2F#i/	.	.
=98	=98	=98	=98
0GG	0G	1r	1.b-
.	.	1d	.
.	.	.	2b-\
=99	=99	=99	=99
0r	0r	1.e	2g/
.	.	.	2g/
.	.	.	[1cc
.	.	2e\	.
=100	=100	=100	=100
0r	0r	2c\	2cc\]
.	.	2c\	4b-\
.	.	.	4a/
.	.	2.f\	1a
.	.	4e\	.
=101	=101	=101	=101
0r	1r	2d\	2b-\
.	.	4c\	1a
.	.	4B-\	.
.	1A	[1A	.
.	.	.	4g/
.	.	.	4f/
=102	=102	=102	=102
0AA	1c	1A]	2a/
.	.	.	4g/
.	.	.	4f/
.	1c	1A	2e/
.	.	.	[2a/
=103	=103	=103	=103
0D	1.d	0A	2a/]
.	.	.	1f
.	2d\	.	2d/
=104	=104	=104	=104
1D	1A	1r	1d
2D\	2r	[1B-	1r
[2BB-/	2d\	.	.
=105	=105	=105	=105
2BB-/]	2d\	2B-\]	2r
2GG/	2.d\	2B-\	2dd\
1GG	.	1B-	2dd\
.	4c\	.	.
.	4B-\	.	[2dd\
.	4A/	.	.
=106	=106	=106	=106
1GG	1G	1B-	4dd\]
.	.	.	4cc\
.	.	.	4b-\
.	.	.	4a/
2.C/	1G	2c\	[1g
.	.	4B-\	.
4D\	.	4A/	.
=107	=107	=107	=107
2E\	0c	2G/	2g/]
2C/	.	2c\	2g/
2F\	.	2A/	1a
2A\	.	2c\	.
=108	=108	=108	=108
1G	1B-	2d\	1b-
.	.	2e\	.
1F	1c	1f	1a
=109	=109	=109	=109
1A	2r	2r	2r
.	2c\	2f\	2a/
1G	2d\	2g\	2b-\
.	2B-\	2e\	2g/
=110	=110	=110	=110
2.F\	2c\	1f	2a/
.	2A/	.	2.cc\
4G\	.	.	.
2A\	2.c\	2e\	.
.	.	.	4b-\
[2F\	.	[2f\	4a/
.	4B-\	.	4g/
=111	=111	=111	=111
2F\]	4c\	4f\]	2a/
.	4B-\	4e\	.
2G\	4A/	4d\	1g
.	4G/	4c\	.
1D	1A	1d	.
.	.	.	2f#i/
=112	=112	=112	=112
1GG	1G	1B-	0g
1C	1r	1G	.
=113	=113	=113	=113
2BB-/	[0G	1r	0r
2.C/	.	.	.
.	.	1c	.
4D\	.	.	.
[2E-\	.	.	.
=114	=114	=114	=114
2E-\]	0G]	2B-\	0r
4D\	.	2c\	.
4C/	.	.	.
2BB-/	.	2d\	.
[2C/	.	[2e-i\	.
=115	=115	=115	=115
4C/]	1G	2e-\]	0r
4D\	.	.	.
4E-i\	.	4d\	.
4F\	.	4c\	.
2G\	1G	2B-\	.
2C/	.	[2e-i\	.
=116	=116	=116	=116
2.G\	1G	2e-\]	1r
.	.	1d	.
4F\	.	.	.
1E-i	1G	.	1g
.	.	2c\	.
=117	=117	=117	=117
0D	2A/	0d	2f/
.	2B-\	.	2g/
.	2A/	.	2a/
.	[2d\	.	[2b-\
=118	=118	=118	=118
1GG	2d\]	0r	2b-\]
.	4c\	.	4a/
.	4B-\	.	4g/
1r	1d	.	2f/
.	.	.	[2b-\
=119	=119	=119	=119
1r	1A	2r	2b-\]
.	.	2c\	1a
1G	1B-	2d\	.
.	.	2e\	2g/
=120	=120	=120	=120
2F\	0A	1.f	0a
1D	.	.	.
2C/	.	2e\	.
=121	=121	=121	=121
2D\	2r	4f\	1r
.	.	4e\	.
2AA/	1A	4d\	.
.	.	4c\	.
1BB-	.	1d	1dd
.	2G/	.	.
=122	=122	=122	=122
1AA	1A	1r	2cc\
.	.	.	1a
1r	1B-	1d	.
.	.	.	2g/
=123	=123	=123	=123
0AA	[0A	2c\	2a/
.	.	4d\	2e/
.	.	4e\	.
.	.	2f\	2.a/
.	.	[2e\	.
.	.	.	4g/
=124	=124	=124	=124
0AA	0A]	2e\]	2f/
.	.	1d	4e/
.	.	.	4d/
.	.	.	1e
.	.	2c\	.
=125	=125	=125	=125
1BB-	1F	2d\	1d
.	.	2.B-\	.
1GG	1G	.	2r
.	.	4c\	.
.	.	2d\	2B-/
=126	=126	=126	=126
0r	2r	2e-i\	2c/
.	2F/	1d	2d/
.	2G/	.	1e-i
.	2A/	2c\	.
=127	=127	=127	=127
2r	1B-	1d	2d/
2BB-/	.	.	1g
2C/	1A	1r	.
2D\	.	.	2f/
=128	=128	=128	=128
0E-	0G	1.B-	2g/
.	.	.	1b-
.	.	4A/	2b-\
.	.	4G/	.
=129	=129	=129	=129
0E-	2r	2.B-\	4b-\
.	.	.	4a/
.	2G/	.	4g/
.	.	4A/	4f/
.	2G/	2B-\	1g
.	2G/	2c\	.
=130	=130	=130	=130
2.D\	2A/	1d	2f/
.	2A/	.	2.d/
4E\	.	.	.
2F\	2.F/	1A	.
.	.	.	4e/
2D\	.	.	2f/
.	4G/	.	.
=131	=131	=131	=131
2F\	4A/	2r	4c/
.	4B-\	.	4d/
2.C/	2.c\	2G/	4e/
.	.	.	4f/
.	.	2G/	2g/
4D\	4B-\	.	.
4E\	2c\	[2G/	2e/
4F\	.	.	.
=132	=132	=132	=132
2G\	2B-\	4G/]	2d/
.	.	4A/	.
2E\	2G/	4B-\	1g
.	.	4c\	.
1D	1A	[1d	.
.	.	.	2f#i/
=133	=133	=133	=133
[0GGl	[0Gl	2d\]	[0gl
.	.	2B-\	.
.	.	1e-i	.
=134	=134	=134	=134
0GG]	0G]	0dl	0g]
==	==	==	==
*-	*-	*-	*-
!!!RDF**kern: l=long note in original notation
!!!RDF**kern: i=editorial accidental
!!!RDF**kern: V=start of tuplet marker
!!!RDF**kern: Z=end of tuplet marker
!!!ENC:	Megan K. Eagen 2013/01/20
!!!END:	2013/01/20/
!!!EED:	Jesse Rodin
!!!EEV:	2013/08/04/
!!!ONB:	Translated from MusicXML and edited on 2013/08/04/ by Craig Sapp
!!muse2ps: T^@{OPR}^u^@{ONM}{. }@{OTL}^C^@{COM}^i2I150v85,85,85,150Q16
